X:252
T:Miss Lyon's
R:reel
Z:transcribed by Dave Marshall
M:C|
K:D
|: D2FA DAFA | dfed cABc | d2cA BdAF | GBAF GFEF |
D2FA DAFA | dfed cABc | d2cd BdAF | GBAG FDD2 :|
|: a2fa defa | gfed cdef | a2fa defa | bgeg fddf |
a2fa defa | gfed cdef | afec dBAF | GBAG FDD2 :|
